src/assets/images/img-ovals-square.svg

<svg width="235" height="235" viewBox="0 0 235 235" fill="none" xmlns="http://www.w3.org/2000/svg">
<path d="M148.863 148.401C146.889 148.401 144.935 148.164 143.111 147.703C141.287 147.241 139.63 146.565 138.235 145.713C136.839 144.86 135.732 143.848 134.976 142.734C134.221 141.621 133.832 140.427 133.832 139.221C133.832 138.016 134.221 136.822 134.976 135.708C135.732 134.594 136.839 133.582 138.235 132.73C139.63 131.878 141.287 131.201 143.111 130.74C144.935 130.279 146.889 130.041 148.863 130.041C152.85 130.041 156.673 131.008 159.492 132.73C162.311 134.452 163.894 136.787 163.894 139.221C163.894 141.656 162.311 143.991 159.492 145.713C156.673 147.434 152.85 148.401 148.863 148.401ZM219.009 148.401C217.035 148.401 215.08 148.164 213.256 147.703C211.433 147.241 209.776 146.565 208.38 145.713C206.984 144.86 205.877 143.848 205.122 142.734C204.366 141.621 203.977 140.427 203.977 139.221C203.977 138.016 204.366 136.822 205.122 135.708C205.877 134.594 206.984 133.582 208.38 132.73C209.776 131.878 211.433 131.201 213.256 130.74C215.08 130.279 217.035 130.041 219.009 130.041C222.995 130.041 226.818 131.008 229.637 132.73C232.456 134.452 234.04 136.787 234.04 139.221C234.04 141.656 232.456 143.991 229.637 145.713C226.818 147.434 222.995 148.401 219.009 148.401ZM148.863 191.242C146.889 191.242 144.935 191.004 143.111 190.543C141.287 190.082 139.63 189.406 138.235 188.553C136.839 187.701 135.732 186.689 134.976 185.575C134.221 184.461 133.832 183.267 133.832 182.062C133.832 180.856 134.221 179.662 134.976 178.549C135.732 177.435 136.839 176.423 138.235 175.57C139.63 174.718 141.287 174.042 143.111 173.58C144.935 173.119 146.889 172.882 148.863 172.882C152.85 172.882 156.673 173.849 159.492 175.57C162.311 177.292 163.894 179.627 163.894 182.062C163.894 184.496 162.311 186.831 159.492 188.553C156.673 190.275 152.85 191.242 148.863 191.242ZM219.009 191.242C217.035 191.242 215.08 191.004 213.256 190.543C211.433 190.082 209.776 189.406 208.38 188.553C206.984 187.701 205.877 186.689 205.122 185.575C204.366 184.461 203.977 183.267 203.977 182.062C203.977 180.856 204.366 179.662 205.122 178.549C205.877 177.435 206.984 176.423 208.38 175.57C209.776 174.718 211.433 174.042 213.256 173.58C215.08 173.119 217.035 172.882 219.009 172.882C222.995 172.882 226.818 173.849 229.637 175.57C232.456 177.292 234.04 179.627 234.04 182.062C234.04 184.496 232.456 186.831 229.637 188.553C226.818 190.275 222.995 191.242 219.009 191.242ZM148.863 234.082C144.877 234.082 141.053 233.115 138.235 231.394C135.416 229.672 133.832 227.337 133.832 224.902C133.832 222.468 135.416 220.133 138.235 218.411C141.053 216.689 144.877 215.722 148.863 215.722C152.85 215.722 156.673 216.689 159.492 218.411C162.311 220.133 163.894 222.468 163.894 224.902C163.894 227.337 162.311 229.672 159.492 231.394C156.673 233.115 152.85 234.082 148.863 234.082ZM219.009 234.082C215.022 234.082 211.199 233.115 208.38 231.394C205.561 229.672 203.977 227.337 203.977 224.902C203.977 222.468 205.561 220.133 208.38 218.411C211.199 216.689 215.022 215.722 219.009 215.722C222.995 215.722 226.818 216.689 229.637 218.411C232.456 220.133 234.04 222.468 234.04 224.902C234.04 227.337 232.456 229.672 229.637 231.394C226.818 233.115 222.995 234.082 219.009 234.082Z" fill="white"/>
<path d="M15.6554 148.592C13.6815 148.592 11.7269 148.355 9.90321 147.894C8.07954 147.432 6.42253 146.756 5.02676 145.904C3.63099 145.051 2.5238 144.039 1.76841 142.925C1.01303 141.811 0.624226 140.618 0.624226 139.412C0.624226 138.207 1.01303 137.013 1.76841 135.899C2.5238 134.785 3.63099 133.773 5.02676 132.921C6.42253 132.068 8.07954 131.392 9.90321 130.931C11.7269 130.47 13.6815 130.232 15.6554 130.232C19.6419 130.232 23.4651 131.199 26.284 132.921C29.1029 134.642 30.6866 136.977 30.6866 139.412C30.6866 141.847 29.1029 144.182 26.284 145.904C23.4651 147.625 19.6419 148.592 15.6554 148.592ZM85.8009 148.592C83.8269 148.592 81.8723 148.355 80.0487 147.894C78.225 147.432 76.568 146.756 75.1722 145.904C73.7764 145.051 72.6693 144.039 71.9139 142.925C71.1585 141.811 70.7697 140.618 70.7697 139.412C70.7697 138.207 71.1585 137.013 71.9139 135.899C72.6693 134.785 73.7764 133.773 75.1722 132.921C76.568 132.068 78.225 131.392 80.0487 130.931C81.8723 130.47 83.8269 130.232 85.8009 130.232C89.7874 130.232 93.6106 131.199 96.4295 132.921C99.2484 134.642 100.832 136.977 100.832 139.412C100.832 141.847 99.2484 144.182 96.4295 145.904C93.6106 147.625 89.7874 148.592 85.8009 148.592ZM15.6554 191.433C13.6815 191.433 11.7269 191.195 9.90321 190.734C8.07954 190.273 6.42253 189.596 5.02676 188.744C3.63099 187.892 2.5238 186.88 1.76841 185.766C1.01303 184.652 0.624226 183.458 0.624226 182.253C0.624226 181.047 1.01303 179.853 1.76841 178.74C2.5238 177.626 3.63099 176.614 5.02676 175.761C6.42253 174.909 8.07954 174.233 9.90321 173.771C11.7269 173.31 13.6815 173.073 15.6554 173.073C19.6419 173.073 23.4651 174.04 26.284 175.761C29.1029 177.483 30.6866 179.818 30.6866 182.253C30.6866 184.687 29.1029 187.022 26.284 188.744C23.4651 190.466 19.6419 191.433 15.6554 191.433ZM85.8009 191.433C83.8269 191.433 81.8723 191.195 80.0487 190.734C78.225 190.273 76.568 189.596 75.1722 188.744C73.7764 187.892 72.6693 186.88 71.9139 185.766C71.1585 184.652 70.7697 183.458 70.7697 182.253C70.7697 181.047 71.1585 179.853 71.9139 178.74C72.6693 177.626 73.7764 176.614 75.1722 175.761C76.568 174.909 78.225 174.233 80.0487 173.771C81.8723 173.31 83.8269 173.073 85.8009 173.073C89.7874 173.073 93.6106 174.04 96.4295 175.761C99.2484 177.483 100.832 179.818 100.832 182.253C100.832 184.687 99.2484 187.022 96.4295 188.744C93.6106 190.466 89.7874 191.433 85.8009 191.433ZM15.6554 234.273C11.6689 234.273 7.84565 233.306 5.02676 231.584C2.20787 229.863 0.624226 227.528 0.624226 225.093C0.624226 222.658 2.20787 220.323 5.02676 218.602C7.84565 216.88 11.6689 215.913 15.6554 215.913C19.6419 215.913 23.4651 216.88 26.284 218.602C29.1029 220.323 30.6866 222.658 30.6866 225.093C30.6866 227.528 29.1029 229.863 26.284 231.584C23.4651 233.306 19.6419 234.273 15.6554 234.273ZM85.8009 234.273C81.8143 234.273 77.9911 233.306 75.1722 231.584C72.3533 229.863 70.7697 227.528 70.7697 225.093C70.7697 222.658 72.3533 220.323 75.1722 218.602C77.9911 216.88 81.8143 215.913 85.8009 215.913C89.7874 215.913 93.6106 216.88 96.4295 218.602C99.2484 220.323 100.832 222.658 100.832 225.093C100.832 227.528 99.2484 229.863 96.4295 231.584C93.6106 233.306 89.7874 234.273 85.8009 234.273Z" fill="white"/>
<path d="M148.863 18.3602C146.889 18.3602 144.935 18.1228 143.111 17.6614C141.287 17.2001 139.63 16.5239 138.235 15.6714C136.839 14.819 135.732 13.807 134.976 12.6932C134.221 11.5794 133.832 10.3857 133.832 9.1801C133.832 7.97456 134.221 6.78081 134.976 5.66703C135.732 4.55325 136.839 3.54124 138.235 2.68879C139.63 1.83634 141.287 1.16014 143.111 0.698793C144.935 0.23745 146.889 -2.5405e-08 148.863 0C152.85 5.13078e-08 156.673 0.967186 159.492 2.68879C162.311 4.41039 163.894 6.74539 163.894 9.1801C163.894 11.6148 162.311 13.9498 159.492 15.6714C156.673 17.393 152.85 18.3602 148.863 18.3602ZM219.009 18.3602C217.035 18.3602 215.08 18.1228 213.256 17.6614C211.433 17.2001 209.776 16.5239 208.38 15.6714C206.984 14.819 205.877 13.807 205.122 12.6932C204.366 11.5794 203.977 10.3857 203.977 9.1801C203.977 7.97456 204.366 6.78081 205.122 5.66703C205.877 4.55325 206.984 3.54124 208.38 2.68879C209.776 1.83634 211.433 1.16014 213.256 0.698793C215.08 0.23745 217.035 -2.5405e-08 219.009 0C222.995 5.13078e-08 226.818 0.967186 229.637 2.68879C232.456 4.41039 234.04 6.74539 234.04 9.1801C234.04 11.6148 232.456 13.9498 229.637 15.6714C226.818 17.393 222.995 18.3602 219.009 18.3602ZM148.863 61.2007C146.889 61.2007 144.935 60.9632 143.111 60.5019C141.287 60.0406 139.63 59.3644 138.235 58.5119C136.839 57.6594 135.732 56.6474 134.976 55.5337C134.221 54.4199 133.832 53.2261 133.832 52.0206C133.832 50.815 134.221 49.6213 134.976 48.5075C135.732 47.3937 136.839 46.3817 138.235 45.5293C139.63 44.6768 141.287 44.0006 143.111 43.5393C144.935 43.0779 146.889 42.8405 148.863 42.8405C152.85 42.8405 156.673 43.8077 159.492 45.5293C162.311 47.2509 163.894 49.5859 163.894 52.0206C163.894 54.4553 162.311 56.7903 159.492 58.5119C156.673 60.2335 152.85 61.2007 148.863 61.2007ZM219.009 61.2007C217.035 61.2007 215.08 60.9632 213.256 60.5019C211.433 60.0406 209.776 59.3644 208.38 58.5119C206.984 57.6594 205.877 56.6474 205.122 55.5337C204.366 54.4199 203.977 53.2261 203.977 52.0206C203.977 50.815 204.366 49.6213 205.122 48.5075C205.877 47.3937 206.984 46.3817 208.38 45.5293C209.776 44.6768 211.433 44.0006 213.256 43.5393C215.08 43.0779 217.035 42.8405 219.009 42.8405C222.995 42.8405 226.818 43.8077 229.637 45.5293C232.456 47.2509 234.04 49.5859 234.04 52.0206C234.04 54.4553 232.456 56.7903 229.637 58.5119C226.818 60.2335 222.995 61.2007 219.009 61.2007ZM148.863 104.041C144.877 104.041 141.053 103.074 138.235 101.352C135.416 99.6308 133.832 97.2958 133.832 94.8611C133.832 92.4264 135.416 90.0914 138.235 88.3698C141.053 86.6482 144.877 85.681 148.863 85.681C152.85 85.681 156.673 86.6482 159.492 88.3698C162.311 90.0914 163.894 92.4264 163.894 94.8611C163.894 97.2958 162.311 99.6308 159.492 101.352C156.673 103.074 152.85 104.041 148.863 104.041ZM219.009 104.041C215.022 104.041 211.199 103.074 208.38 101.352C205.561 99.6308 203.977 97.2958 203.977 94.8611C203.977 92.4264 205.561 90.0914 208.38 88.3698C211.199 86.6482 215.022 85.681 219.009 85.681C222.995 85.681 226.818 86.6482 229.637 88.3698C232.456 90.0914 234.04 92.4264 234.04 94.8611C234.04 97.2958 232.456 99.6308 229.637 101.352C226.818 103.074 222.995 104.041 219.009 104.041Z" fill="white"/>
<path d="M15.6554 18.3602C13.6815 18.3602 11.7269 18.1228 9.9032 17.6614C8.07954 17.2001 6.42253 16.5239 5.02676 15.6714C3.63098 14.819 2.5238 13.807 1.76841 12.6932C1.01303 11.5794 0.624226 10.3857 0.624226 9.1801C0.624226 7.97455 1.01303 6.78081 1.76841 5.66703C2.5238 4.55325 3.63098 3.54124 5.02676 2.68879C6.42253 1.83634 8.07954 1.16014 9.9032 0.698793C11.7269 0.23745 13.6815 -2.5405e-08 15.6554 0C19.6419 5.13078e-08 23.4652 0.967185 26.284 2.68879C29.1029 4.41039 30.6866 6.74539 30.6866 9.1801C30.6866 11.6148 29.1029 13.9498 26.284 15.6714C23.4652 17.393 19.6419 18.3602 15.6554 18.3602ZM85.8009 18.3602C83.8269 18.3602 81.8723 18.1228 80.0487 17.6614C78.225 17.2001 76.568 16.5239 75.1722 15.6714C73.7764 14.819 72.6693 13.807 71.9139 12.6932C71.1585 11.5794 70.7697 10.3857 70.7697 9.1801C70.7697 7.97455 71.1585 6.78081 71.9139 5.66703C72.6693 4.55325 73.7764 3.54124 75.1722 2.68879C76.568 1.83634 78.225 1.16014 80.0487 0.698793C81.8723 0.23745 83.8269 -2.5405e-08 85.8009 0C89.7874 5.13078e-08 93.6106 0.967185 96.4295 2.68879C99.2484 4.41039 100.832 6.74539 100.832 9.1801C100.832 11.6148 99.2484 13.9498 96.4295 15.6714C93.6106 17.393 89.7874 18.3602 85.8009 18.3602ZM15.6554 61.2007C13.6815 61.2007 11.7269 60.9632 9.9032 60.5019C8.07954 60.0406 6.42253 59.3644 5.02676 58.5119C3.63098 57.6595 2.5238 56.6474 1.76841 55.5337C1.01303 54.4199 0.624226 53.2261 0.624226 52.0206C0.624226 50.815 1.01303 49.6213 1.76841 48.5075C2.5238 47.3937 3.63098 46.3817 5.02676 45.5293C6.42253 44.6768 8.07954 44.0006 9.9032 43.5393C11.7269 43.0779 13.6815 42.8405 15.6554 42.8405C19.6419 42.8405 23.4652 43.8077 26.284 45.5293C29.1029 47.2509 30.6866 49.5859 30.6866 52.0206C30.6866 54.4553 29.1029 56.7903 26.284 58.5119C23.4652 60.2335 19.6419 61.2007 15.6554 61.2007ZM85.8009 61.2007C83.8269 61.2007 81.8723 60.9632 80.0487 60.5019C78.225 60.0406 76.568 59.3644 75.1722 58.5119C73.7764 57.6595 72.6693 56.6474 71.9139 55.5337C71.1585 54.4199 70.7697 53.2261 70.7697 52.0206C70.7697 50.815 71.1585 49.6213 71.9139 48.5075C72.6693 47.3937 73.7764 46.3817 75.1722 45.5293C76.568 44.6768 78.225 44.0006 80.0487 43.5393C81.8723 43.0779 83.8269 42.8405 85.8009 42.8405C89.7874 42.8405 93.6106 43.8077 96.4295 45.5293C99.2484 47.2509 100.832 49.5859 100.832 52.0206C100.832 54.4553 99.2484 56.7903 96.4295 58.5119C93.6106 60.2335 89.7874 61.2007 85.8009 61.2007ZM15.6554 104.041C11.6689 104.041 7.84565 103.074 5.02676 101.352C2.20787 99.6308 0.624226 97.2958 0.624226 94.8611C0.624226 92.4264 2.20787 90.0914 5.02676 88.3698C7.84565 86.6482 11.6689 85.681 15.6554 85.681C19.6419 85.681 23.4652 86.6482 26.284 88.3698C29.1029 90.0914 30.6866 92.4264 30.6866 94.8611C30.6866 97.2958 29.1029 99.6308 26.284 101.352C23.4652 103.074 19.6419 104.041 15.6554 104.041ZM85.8009 104.041C81.8143 104.041 77.9911 103.074 75.1722 101.352C72.3533 99.6308 70.7697 97.2958 70.7697 94.8611C70.7697 92.4264 72.3533 90.0914 75.1722 88.3698C77.9911 86.6482 81.8143 85.681 85.8009 85.681C89.7874 85.681 93.6106 86.6482 96.4295 88.3698C99.2484 90.0914 100.832 92.4264 100.832 94.8611C100.832 97.2958 99.2484 99.6308 96.4295 101.352C93.6106 103.074 89.7874 104.041 85.8009 104.041Z" fill="white"/>
</svg>

<svg xmlns="http://www.w3.org/2000/svg" width="235" height="235" fill="none"><path fill="#fff" d="M148.863 148.401a23.61 23.61 0 0 1-5.752-.698c-1.824-.462-3.481-1.138-4.876-1.99-1.396-.853-2.503-1.865-3.259-2.979-.755-1.113-1.144-2.307-1.144-3.513 0-1.205.389-2.399 1.144-3.513.756-1.114 1.863-2.126 3.259-2.978 1.395-.852 3.052-1.529 4.876-1.99a23.61 23.61 0 0 1 5.752-.699c3.987 0 7.81.967 10.629 2.689s4.402 4.057 4.402 6.491c0 2.435-1.583 4.77-4.402 6.492-2.819 1.721-6.642 2.688-10.629 2.688Zm70.146 0c-1.974 0-3.929-.237-5.753-.698-1.823-.462-3.48-1.138-4.876-1.99-1.396-.853-2.503-1.865-3.258-2.979-.756-1.113-1.145-2.307-1.145-3.513 0-1.205.389-2.399 1.145-3.513.755-1.114 1.862-2.126 3.258-2.978 1.396-.852 3.053-1.529 4.876-1.99a23.619 23.619 0 0 1 5.753-.699c3.986 0 7.809.967 10.628 2.689s4.403 4.057 4.403 6.491c0 2.435-1.584 4.77-4.403 6.492-2.819 1.721-6.642 2.688-10.628 2.688Zm-70.146 42.841a23.61 23.61 0 0 1-5.752-.699c-1.824-.461-3.481-1.137-4.876-1.99-1.396-.852-2.503-1.864-3.259-2.978-.755-1.114-1.144-2.308-1.144-3.513 0-1.206.389-2.4 1.144-3.513.756-1.114 1.863-2.126 3.259-2.979 1.395-.852 3.052-1.528 4.876-1.99a23.61 23.61 0 0 1 5.752-.698c3.987 0 7.81.967 10.629 2.688 2.819 1.722 4.402 4.057 4.402 6.492 0 2.434-1.583 4.769-4.402 6.491-2.819 1.722-6.642 2.689-10.629 2.689Zm70.146 0c-1.974 0-3.929-.238-5.753-.699-1.823-.461-3.48-1.137-4.876-1.99-1.396-.852-2.503-1.864-3.258-2.978-.756-1.114-1.145-2.308-1.145-3.513 0-1.206.389-2.4 1.145-3.513.755-1.114 1.862-2.126 3.258-2.979 1.396-.852 3.053-1.528 4.876-1.99a23.618 23.618 0 0 1 5.753-.698c3.986 0 7.809.967 10.628 2.688 2.819 1.722 4.403 4.057 4.403 6.492 0 2.434-1.584 4.769-4.403 6.491-2.819 1.722-6.642 2.689-10.628 2.689Zm-70.146 42.84c-3.986 0-7.81-.967-10.628-2.688-2.819-1.722-4.403-4.057-4.403-6.492 0-2.434 1.584-4.769 4.403-6.491 2.818-1.722 6.642-2.689 10.628-2.689 3.987 0 7.81.967 10.629 2.689s4.402 4.057 4.402 6.491c0 2.435-1.583 4.77-4.402 6.492-2.819 1.721-6.642 2.688-10.629 2.688Zm70.146 0c-3.987 0-7.81-.967-10.629-2.688-2.819-1.722-4.403-4.057-4.403-6.492 0-2.434 1.584-4.769 4.403-6.491 2.819-1.722 6.642-2.689 10.629-2.689 3.986 0 7.809.967 10.628 2.689s4.403 4.057 4.403 6.491c0 2.435-1.584 4.77-4.403 6.492-2.819 1.721-6.642 2.688-10.628 2.688ZM15.655 148.592a23.61 23.61 0 0 1-5.752-.698c-1.823-.462-3.48-1.138-4.876-1.99-1.396-.853-2.503-1.865-3.259-2.979-.755-1.114-1.144-2.307-1.144-3.513 0-1.205.389-2.399 1.144-3.513.756-1.114 1.863-2.126 3.259-2.978 1.396-.853 3.053-1.529 4.876-1.99a23.61 23.61 0 0 1 5.752-.699c3.987 0 7.81.967 10.629 2.689 2.819 1.721 4.403 4.056 4.403 6.491 0 2.435-1.584 4.77-4.403 6.492-2.819 1.721-6.642 2.688-10.629 2.688Zm70.146 0a23.61 23.61 0 0 1-5.752-.698c-1.824-.462-3.481-1.138-4.877-1.99-1.396-.853-2.503-1.865-3.258-2.979-.755-1.114-1.144-2.307-1.144-3.513 0-1.205.389-2.399 1.144-3.513.755-1.114 1.862-2.126 3.258-2.978 1.396-.853 3.053-1.529 4.877-1.99a23.61 23.61 0 0 1 5.752-.699c3.986 0 7.81.967 10.629 2.689 2.818 1.721 4.402 4.056 4.402 6.491 0 2.435-1.584 4.77-4.402 6.492-2.82 1.721-6.643 2.688-10.63 2.688Zm-70.146 42.841a23.61 23.61 0 0 1-5.752-.699c-1.823-.461-3.48-1.138-4.876-1.99-1.396-.852-2.503-1.864-3.259-2.978-.755-1.114-1.144-2.308-1.144-3.513 0-1.206.389-2.4 1.144-3.513.756-1.114 1.863-2.126 3.259-2.979 1.396-.852 3.053-1.528 4.876-1.99a23.61 23.61 0 0 1 5.752-.698c3.987 0 7.81.967 10.629 2.688 2.819 1.722 4.403 4.057 4.403 6.492 0 2.434-1.584 4.769-4.403 6.491-2.819 1.722-6.642 2.689-10.629 2.689Zm70.146 0a23.61 23.61 0 0 1-5.752-.699c-1.824-.461-3.481-1.138-4.877-1.99-1.396-.852-2.503-1.864-3.258-2.978-.755-1.114-1.144-2.308-1.144-3.513 0-1.206.389-2.4 1.144-3.513.755-1.114 1.862-2.126 3.258-2.979 1.396-.852 3.053-1.528 4.877-1.99a23.61 23.61 0 0 1 5.752-.698c3.986 0 7.81.967 10.629 2.688 2.818 1.722 4.402 4.057 4.402 6.492 0 2.434-1.584 4.769-4.402 6.491-2.82 1.722-6.643 2.689-10.63 2.689Zm-70.146 42.84c-3.986 0-7.81-.967-10.628-2.689-2.82-1.721-4.403-4.056-4.403-6.491 0-2.435 1.584-4.77 4.403-6.491 2.819-1.722 6.642-2.689 10.628-2.689 3.987 0 7.81.967 10.629 2.689 2.819 1.721 4.403 4.056 4.403 6.491 0 2.435-1.584 4.77-4.403 6.491-2.819 1.722-6.642 2.689-10.629 2.689Zm70.146 0c-3.987 0-7.81-.967-10.629-2.689-2.819-1.721-4.402-4.056-4.402-6.491 0-2.435 1.583-4.77 4.402-6.491 2.82-1.722 6.642-2.689 10.629-2.689 3.986 0 7.81.967 10.629 2.689 2.818 1.721 4.402 4.056 4.402 6.491 0 2.435-1.584 4.77-4.402 6.491-2.82 1.722-6.643 2.689-10.63 2.689ZM148.863 18.36a23.59 23.59 0 0 1-5.752-.699c-1.824-.46-3.481-1.137-4.876-1.99-1.396-.852-2.503-1.864-3.259-2.978-.755-1.114-1.144-2.307-1.144-3.513 0-1.205.389-2.4 1.144-3.513.756-1.114 1.863-2.126 3.259-2.978 1.395-.853 3.052-1.529 4.876-1.99A23.594 23.594 0 0 1 148.863 0c3.987 0 7.81.967 10.629 2.689 2.819 1.721 4.402 4.056 4.402 6.491 0 2.435-1.583 4.77-4.402 6.491-2.819 1.722-6.642 2.69-10.629 2.69Zm70.146 0a23.6 23.6 0 0 1-5.753-.699c-1.823-.46-3.48-1.137-4.876-1.99-1.396-.852-2.503-1.864-3.258-2.978-.756-1.114-1.145-2.307-1.145-3.513 0-1.205.389-2.4 1.145-3.513.755-1.114 1.862-2.126 3.258-2.978 1.396-.853 3.053-1.529 4.876-1.99A23.602 23.602 0 0 1 219.009 0c3.986 0 7.809.967 10.628 2.689 2.819 1.721 4.403 4.056 4.403 6.491 0 2.435-1.584 4.77-4.403 6.491-2.819 1.722-6.642 2.69-10.628 2.69ZM148.863 61.2c-1.974 0-3.928-.237-5.752-.698-1.824-.461-3.481-1.138-4.876-1.99-1.396-.853-2.503-1.865-3.259-2.978-.755-1.114-1.144-2.308-1.144-3.513 0-1.206.389-2.4 1.144-3.514.756-1.113 1.863-2.125 3.259-2.978 1.395-.852 3.052-1.528 4.876-1.99a23.59 23.59 0 0 1 5.752-.699c3.987 0 7.81.968 10.629 2.69 2.819 1.72 4.402 4.056 4.402 6.49 0 2.435-1.583 4.77-4.402 6.492-2.819 1.721-6.642 2.689-10.629 2.689Zm70.146 0c-1.974 0-3.929-.237-5.753-.698-1.823-.461-3.48-1.138-4.876-1.99-1.396-.853-2.503-1.865-3.258-2.978-.756-1.114-1.145-2.308-1.145-3.513 0-1.206.389-2.4 1.145-3.514.755-1.113 1.862-2.125 3.258-2.978 1.396-.852 3.053-1.528 4.876-1.99a23.6 23.6 0 0 1 5.753-.699c3.986 0 7.809.968 10.628 2.69 2.819 1.72 4.403 4.056 4.403 6.49 0 2.435-1.584 4.77-4.403 6.492-2.819 1.721-6.642 2.689-10.628 2.689Zm-70.146 42.841c-3.986 0-7.81-.967-10.628-2.689-2.819-1.721-4.403-4.056-4.403-6.49 0-2.436 1.584-4.77 4.403-6.492 2.818-1.722 6.642-2.689 10.628-2.689 3.987 0 7.81.967 10.629 2.689 2.819 1.721 4.402 4.056 4.402 6.491 0 2.435-1.583 4.77-4.402 6.491-2.819 1.722-6.642 2.689-10.629 2.689Zm70.146 0c-3.987 0-7.81-.967-10.629-2.689-2.819-1.721-4.403-4.056-4.403-6.49 0-2.436 1.584-4.77 4.403-6.492 2.819-1.722 6.642-2.689 10.629-2.689 3.986 0 7.809.967 10.628 2.689 2.819 1.721 4.403 4.056 4.403 6.491 0 2.435-1.584 4.77-4.403 6.491-2.819 1.722-6.642 2.689-10.628 2.689ZM15.655 18.36c-1.973 0-3.928-.237-5.752-.699-1.823-.46-3.48-1.137-4.876-1.99-1.396-.852-2.503-1.864-3.259-2.978C1.013 11.58.624 10.386.624 9.18c0-1.205.389-2.4 1.144-3.513.756-1.114 1.863-2.126 3.259-2.978C6.423 1.836 8.08 1.16 9.903.699A23.594 23.594 0 0 1 15.655 0c3.987 0 7.81.967 10.629 2.689 2.819 1.721 4.403 4.056 4.403 6.491 0 2.435-1.584 4.77-4.403 6.491-2.819 1.722-6.642 2.69-10.629 2.69Zm70.146 0a23.59 23.59 0 0 1-5.752-.699c-1.824-.46-3.481-1.137-4.877-1.99-1.396-.852-2.503-1.864-3.258-2.978-.755-1.114-1.144-2.307-1.144-3.513 0-1.205.389-2.4 1.144-3.513.755-1.114 1.862-2.126 3.258-2.978 1.396-.853 3.053-1.529 4.877-1.99A23.593 23.593 0 0 1 85.8 0c3.986 0 7.81.967 10.629 2.689 2.818 1.721 4.402 4.056 4.402 6.491 0 2.435-1.584 4.77-4.402 6.491-2.82 1.722-6.643 2.69-10.63 2.69ZM15.655 61.2c-1.973 0-3.928-.237-5.752-.698-1.823-.461-3.48-1.138-4.876-1.99-1.396-.852-2.503-1.865-3.259-2.978C1.013 54.42.624 53.226.624 52.02c0-1.206.389-2.4 1.144-3.514.756-1.113 1.863-2.125 3.259-2.978 1.396-.852 3.053-1.528 4.876-1.99a23.591 23.591 0 0 1 5.752-.699c3.987 0 7.81.968 10.629 2.69 2.819 1.72 4.403 4.056 4.403 6.49 0 2.435-1.584 4.77-4.403 6.492-2.819 1.721-6.642 2.689-10.629 2.689Zm70.146 0c-1.974 0-3.929-.237-5.752-.698-1.824-.461-3.481-1.138-4.877-1.99-1.396-.852-2.503-1.865-3.258-2.978-.755-1.114-1.144-2.308-1.144-3.513 0-1.206.389-2.4 1.144-3.514.755-1.113 1.862-2.125 3.258-2.978 1.396-.852 3.053-1.528 4.877-1.99a23.59 23.59 0 0 1 5.752-.699c3.986 0 7.81.968 10.629 2.69 2.818 1.72 4.402 4.056 4.402 6.49 0 2.435-1.584 4.77-4.402 6.492-2.82 1.721-6.643 2.689-10.63 2.689Zm-70.146 42.841c-3.986 0-7.81-.967-10.628-2.689-2.82-1.721-4.403-4.056-4.403-6.49 0-2.436 1.584-4.77 4.403-6.492 2.819-1.722 6.642-2.689 10.628-2.689 3.987 0 7.81.967 10.629 2.689 2.819 1.721 4.403 4.056 4.403 6.491 0 2.435-1.584 4.77-4.403 6.491-2.819 1.722-6.642 2.689-10.629 2.689Zm70.146 0c-3.987 0-7.81-.967-10.629-2.689-2.819-1.721-4.402-4.056-4.402-6.49 0-2.436 1.583-4.77 4.402-6.492 2.82-1.722 6.642-2.689 10.629-2.689 3.986 0 7.81.967 10.629 2.689 2.818 1.721 4.402 4.056 4.402 6.491 0 2.435-1.584 4.77-4.402 6.491-2.82 1.722-6.643 2.689-10.63 2.689Z"/></svg>
